X:25
T:Highland Wedding, The
M: C|
L:1/8
B:Thompson's Compleat Collection of 200 Favourite Country Dances, vol. 3 (London, 1773)
Z:Transcribed and edited by Flynn Titford-Mock, 2007
Z:abc's:AK/Fiddler's Companion
K:G
B(gg)e dBAG | E>DE>G E>DE>G | B(gg)e dBBG | EDEF G2 G,2::gege dedB | gege d2B2 |
geaf gede | dBAG A2 DA | B(gg)e dBAG | E>DEG E>DEG | B(gg)e dBAG | E>DEF G2 G,2 :|

